app/assets/images/heroicon/outline/speaker-x-mark.svg

<svg width="24" height="24" viewBox="0 0 24 24" fill="none" xmlns="http://www.w3.org/2000/svg">
<path d="M17.25 9.74999L19.5 12M19.5 12L21.75 14.25M19.5 12L21.75 9.74999M19.5 12L17.25 14.25M6.75 8.24999L11.4697 3.53032C11.9421 3.05784 12.75 3.39247 12.75 4.06065V19.9393C12.75 20.6075 11.9421 20.9421 11.4697 20.4697L6.75 15.75H4.50905C3.62971 15.75 2.8059 15.2435 2.57237 14.3957C2.36224 13.6329 2.25 12.8296 2.25 12C2.25 11.1704 2.36224 10.367 2.57237 9.60423C2.8059 8.75646 3.62971 8.24999 4.50905 8.24999H6.75Z" stroke="#0F172A" stroke-width="1.5" stroke-linecap="round" stroke-linejoin="round"/>
</svg>

<svg xmlns="http://www.w3.org/2000/svg" fill="none" viewBox="0 0 24 24" stroke-width="1.5" stroke="currentColor" aria-hidden="true">
  <path stroke-linecap="round" stroke-linejoin="round" d="M17.25 9.75L19.5 12m0 0l2.25 2.25M19.5 12l2.25-2.25M19.5 12l-2.25 2.25m-10.5-6l4.72-4.72a.75.75 0 011.28.531V19.94a.75.75 0 01-1.28.53l-4.72-4.72H4.51c-.88 0-1.704-.506-1.938-1.354A9.01 9.01 0 012.25 12c0-.83.112-1.633.322-2.395C2.806 8.757 3.63 8.25 4.51 8.25H6.75z"/>
</svg>
